icons/desktop/16/svg/firefox-browser-bridge-16.svg

<svg width="16" height="16" viewBox="0 0 16 16" fill="none" xmlns="http://www.w3.org/2000/svg">
<g clip-path="url(#clip0_8069_32523)">
<path d="M15.8801 11.9089L13.6911 9.7199C13.4341 9.4629 12.9941 9.6449 12.9941 10.0089V11.0089C10.4321 11.1899 8.33106 13.0399 7.81006 15.4929C7.71906 15.9189 8.26406 16.1879 8.52706 15.8409C9.56706 14.4719 11.1721 13.5649 12.9941 13.4449V14.3859C12.9941 14.7499 13.4341 14.9319 13.6911 14.6749L15.8801 12.4859C16.0391 12.3269 16.0391 12.0679 15.8801 11.9089Z" fill="black"/>
<path d="M9.842 10.445C10.263 9.41502 10.519 8.31602 10.542 7.18302C11.19 7.28702 11.832 7.42002 12.469 7.58002C12.437 7.88502 12.373 8.17902 12.293 8.46702C12.608 8.23902 12.99 8.09902 13.407 8.09902C13.575 8.09902 13.737 8.12802 13.895 8.17002C13.96 7.78802 14.001 7.39902 14.001 6.99902C14.001 3.14002 10.861 -0.000976562 7.001 -0.000976562C3.141 -0.000976562 0 3.14102 0 7.00002C0 10.767 2.993 13.84 6.725 13.986C7.34 12.48 8.447 11.238 9.842 10.445ZM7 12.207C5.692 10.798 4.948 8.93802 4.948 7.00002C4.948 6.99902 4.948 6.99802 4.948 6.99702C6.314 6.87202 7.687 6.87202 9.051 6.99702C9.051 6.99802 9.051 6.99902 9.051 7.00102C9.051 8.93902 8.308 10.799 6.999 12.208L7 12.207ZM12.408 6.02302C11.756 5.87102 11.1 5.74102 10.438 5.64502C10.234 4.28902 9.73 3.00002 8.965 1.86902C10.734 2.54902 12.064 4.11502 12.408 6.02302ZM7 1.79302C7.96 2.82702 8.614 4.10202 8.894 5.47402C7.634 5.37502 6.367 5.37502 5.106 5.47402C5.386 4.10102 6.04 2.82702 7 1.79302ZM5.035 1.86902C4.269 3.00002 3.766 4.28902 3.562 5.64502C2.901 5.74102 2.244 5.87102 1.592 6.02302C1.936 4.11502 3.266 2.54902 5.035 1.86902ZM1.531 7.58102C2.168 7.42002 2.81 7.28802 3.458 7.18402C3.494 8.96302 4.051 10.678 5.035 12.131C3.144 11.404 1.751 9.66702 1.531 7.58102Z" fill="black"/>
</g>
<defs>
<clipPath id="clip0_8069_32523">
<rect width="16" height="16" fill="white"/>
</clipPath>
</defs>
</svg>

<!-- This Source Code Form is subject to the terms of the Mozilla Public
   - License, v. 2.0. If a copy of the MPL was not distributed with this
   - file, You can obtain one at http://mozilla.org/MPL/2.0/. -->
<svg xmlns="http://www.w3.org/2000/svg" width="16" height="16" fill="context-fill" fill-opacity="context-fill-opacity" viewBox="0 0 16 16">
    <g clip-path="url(#clip0_8069_32523)">
        <path d="m15.88 11.909-2.189-2.19a.408.408 0 0 0-.697.29v1a5.7 5.7 0 0 0-5.184 4.484c-.09.426.454.695.717.348a6.1 6.1 0 0 1 4.467-2.396v.94c0 .365.44.547.697.29l2.19-2.19a.41.41 0 0 0 0-.576M9.842 10.445a9.1 9.1 0 0 0 .7-3.262q.972.157 1.927.397a5.4 5.4 0 0 1-.176.887 1.9 1.9 0 0 1 1.114-.368c.168 0 .33.029.488.071.065-.382.106-.771.106-1.171 0-3.859-3.14-7-7-7S0 3.141 0 7c0 3.767 2.993 6.84 6.725 6.986a7.22 7.22 0 0 1 3.117-3.541M7 12.207A7.67 7.67 0 0 1 4.948 7v-.003a22.5 22.5 0 0 1 4.103 0v.004a7.66 7.66 0 0 1-2.052 5.207zm5.408-6.184a24 24 0 0 0-1.97-.378 9.2 9.2 0 0 0-1.473-3.776 5.51 5.51 0 0 1 3.443 4.154M7 1.793a7.67 7.67 0 0 1 1.894 3.681 24 24 0 0 0-3.788 0A7.66 7.66 0 0 1 7 1.793m-1.965.076a9.16 9.16 0 0 0-1.473 3.776 24 24 0 0 0-1.97.378 5.51 5.51 0 0 1 3.443-4.154M1.531 7.581a22 22 0 0 1 1.927-.397 9.15 9.15 0 0 0 1.577 4.947 5.51 5.51 0 0 1-3.504-4.55" />
    </g>
</svg>
